!!!COM: Bach, Johann Sebastian
!!!OPR: Joh. Seb. Bachs vierstimmige Choralges‰nge
!!!XEN: Four-part Chorales
!!!OTL: 48. Du, o schˆnes Weltgeb‰ude
!!!SCT: BWV 301
!!!SCA: Thematisch-systematisches Verzeichnis der musikalischen Werke Johann Sebastian Bach: Bach-Werke-Verzeichnis (Schmieder)
!!!YOR: Bach Gesellschaft Edition xxxix
!!!ENC: Steven Rasmussen
!!!CDT: 1685/3//-1750/7/28/
!!!OCY: Deutschland
!!!YEC: Copyright (c) 1994, 2000 Center for Computer Assisted Research in the Humanities
!!!YEM: Rights to all derivative editions reserved
!!!YEN: United States of America
**kern	**kern	**kern	**kern	**silbe
*I:[BASSO]	*I:[TENORE]	*I:[ALTO]	*I:[SOPRANO]	*I:[SOPRANO]
*>[A,A,B]	*>[A,A,B]	*>[A,A,B]	*>[A,A,B]	*
*>A	*>A	*>A	*>A	*
*clefF4	*clefGv2	*clefG2	*clefG2	*
*k[b-]	*k[b-]	*k[b-]	*k[b-]	*
*d:	*d:	*d:	*d:	*
*M4/4	*M4/4	*M4/4	*M4/4	*
=1-	=1-	=1-	=1-	=1-
4.D	4A	4f	4dd	Du,dei-
.	8fL	4a	4a	o-ne
8C	8eJ	.	.	.
4.BBn	8dL	4a	4dd	sch√∂-schein-
.	8cJ	.	.	.
.	4Bn	8g#L	4dd	-nes-bar-
8AA	.	8aJ	.	.
=2	=2	=2	=2	=2
4GG#	4.Bn	8bnL	4ee	Welt--li-
.	.	8eJ	.	.
4AA	.	4e	4cc	-ge--che
.	8A	.	.	.
4D	4A	4f	2bn	-b√§u-Freu-
4E	4G#	8eL	.	.
.	.	8dJ	.	.
=3	=3	=3	=3	=3
2AA;	2E;	2c#;	2a;	-de,-de
8DL	4A	4d	4f	magstist
8EJ	.	.	.	.
4F	4A	8dL	4a	ge-mit
.	.	8c#J	.	.
=4	=4	=4	=4	=4
8BBnL	8DL	8dL	4g	-fal-lau-
8C#J	8AJ	8eJ	.	.
4D	4A	8eL	4f	-len,-ter
.	.	8dJ	.	.
4GG	4B-	4d	4.e	wemAngst
4AA	8.AL	4c#	.	.
.	.	.	8d	duum-
.	16GJk	.	.	.
=5	=5	=5	=5	=5
1D;	1F;	1A;	1d;	willt,-h√ºllt.
=6:|!	=6:|!	=6:|!	=6:|!	=6:|!
*>B	*>B	*>B	*>B	*
4D	4A	4d	4f	De-
8CL	4c	4e	4g	-nen,
8BB-J	.	.	.	.
8AAL	4c	4f	4a	die
8GGJ	.	.	.	.
8FFL	4c	4f	4a	den
8EEJ	.	.	.	.
=7	=7	=7	=7	=7
8DDL	8dL	8fL	4b-	Him-
8EEJ	8cJ	8gJ	.	.
4FF	4c	8gL	4a	-mel
.	.	8fJ	.	.
4BB-	8dL	4f	2g	has-
.	8B-	.	.	.
4C	8G	4e	.	.
.	16cL	.	.	.
.	16B-JJ	.	.	.
=8	=8	=8	=8	=8
2FF;	2A;	2c;	2f;	-sen,
4D	4A	4.d	4f	will
4E	4G	.	4g	ich
.	.	8c	.	.
=9	=9	=9	=9	=9
4F	8FL	8cL	4a	ih-
.	8AJ	8fJ	.	.
4F#	8dL	4a	4a	-re
.	8e-J	.	.	.
4G	4d	8aL	4b-	Welt-
.	.	8gJ	.	.
4A	4c	8gL	4a	-lust
.	.	8fJ	.	.
=10	=10	=10	=10	=10
4B-	4d	8fL	2g	las-
.	.	16eL	.	.
.	.	16dJJ	.	.
4c	8cL	4e	.	.
.	8B-J	.	.	.
2F;	2A;	2c;	2f;	-sen;
=11	=11	=11	=11	=11
8FL	4c	4f	4a	mich
8EJ	.	.	.	.
4D	4d	4f	4bn	ver-
8EL	4c	4g	4cc	-langt
8CJ	.	.	.	.
4F	4c	8gL	4a	nach
.	.	8fJ	.	.
=12	=12	=12	=12	=12
8B-L	8dL	4f	4dd	dir
8AJ	8cJ	.	.	.
4G#	4Bn	8fL	4dd	al-
.	.	8eJ	.	.
2A;	2A;	2e;	2cc#;	-lein,
=13	=13	=13	=13	=13
8FL	4A	8fL	8ddL	al-
8EJ	.	8gJ	8eeJ	.
4D	8dL	4a	4ff	-ler-
.	8cJ	.	.	.
8DL	4B-	4g	4ee	-sch√∂n-
8C#J	.	.	.	.
8DL	4A	4f	4dd	-ster
8FJ	.	.	.	.
=14	=14	=14	=14	=14
8GL	4B-	4e	4dd	Je-
8EJ	.	.	.	.
4A	4A	4e	4cc#	-su
2D;	2A;	2f#;	2dd;	mein.
==|!	==|!	==|!	==|!	==|!
*-	*-	*-	*-	*-
!!!RWG: Key is interpreted using the Humdrum key tool.
!!!URL-pdf: https://s9.imslp.org/files/imglnks/usimg/6/6b/IMSLP24489-PMLP09471-CCARH_Bach_Chorales.pdf#page=32 Musedata edition
!!!URL-pdf: https://s9.imslp.org/files/imglnks/usimg/7/7a/IMSLP04155-Bach_-_BGA_253-438.pdf#page=26 	Bach-Gesellschaft Ausgabe, Band 39 (pp.175-276) Leipzig: Breitkopf und H‰rtel, 1892. Plate B.W. XXXIX.
!!!END: 1994/05/18
!!!EMD: Converted from MuseData to Humdrum Dec 19, 2000, by Andreas Kornstaedt using muse2kern.
!!!EED: Craig Stuart Sapp
!!!EEV: 2024/03/31
!!!ONB: Some non-unicode characters
!!!filter-keyboard: satb2gs
